X: 40940
T: Trip To Broadford, The
R: waltz
M: 3/4
K: Dmajor
|:FA AF AB|A2F2A2|B4AF|E2D3D|
FA AF AB|A2d3e|d2BA FE|1 D4ED:|2 D3d2B||
|:A2 AB dA|f2f2ef|d2B2de|BA-A4|
A2B2de|f2f2ef|d2AF EE|1 D3d2B:|2 D3DED||

